Sources/FrostedUI/Resources/Icons.xcassets/pinTiltedFilled20.imageset/pin-tilted-filled-20.svg

<svg width="20" height="20" viewBox="0 0 20 20" fill="none" xmlns="http://www.w3.org/2000/svg" data-fui-icon="true">
  <path
    d="M10.537 2.39001C11.5327 1.39474 13.1467 1.39486 14.1425 2.39001L17.6083 5.85583C18.6035 6.85158 18.6036 8.46558 17.6083 9.4613L14.7255 12.3441C14.5811 12.4885 14.4739 12.6666 14.4139 12.8617L13.4042 16.1537C12.8404 17.9917 10.5225 18.5687 9.16296 17.2094L6.50671 14.5531L3.63367 17.4252C3.34079 17.7181 2.86602 17.718 2.57312 17.4252C2.28028 17.1323 2.28025 16.6575 2.57312 16.3646L5.44519 13.4926L2.78894 10.8353C1.42976 9.47579 2.00663 7.15784 3.8446 6.59412L7.1366 5.58435C7.33172 5.52445 7.50983 5.41812 7.65417 5.2738L10.537 2.39001Z"
    fill="currentColor"
  />
</svg>

<svg xmlns="http://www.w3.org/2000/svg" width="20" height="20" fill="none" data-fui-icon="true" viewBox="0 0 20 20"><path fill="currentColor" d="M10.537 2.39a2.55 2.55 0 0 1 3.605 0l3.466 3.466a2.55 2.55 0 0 1 0 3.605l-2.883 2.883a1.25 1.25 0 0 0-.311.518l-1.01 3.292c-.564 1.838-2.881 2.415-4.241 1.055l-2.656-2.656-2.873 2.872a.75.75 0 0 1-1.06-1.06l2.871-2.872-2.656-2.658c-1.36-1.36-.782-3.677 1.056-4.24l3.292-1.01c.195-.06.373-.167.517-.311z"/></svg>
